X: 8
T: Green Groves Of Erin, The
Z: Thady Quill
S: https://thesession.org/tunes/41#setting52448
R: reel
M: 4/4
L: 1/8
K: Ador
|:A2 BA eABA|geae gedB|A2 BA eABA|BAGD EAA2:|
eaag eaag|egdg egdg|eaag eaag|edef gedg|
eaag abag|edef g3e|defg a3e|geae gedB||

